X:40
T:Rip the Calico                                                                                    
M:4/4                                                                                               
L:1/8                                                                                               
K:DMix                                                                                              
d2 fd d2 fd|edBd egfe|d2 fd d2 fd|efdB A3 d|                                                        
d2 fd d2 fd|ed (3Bcd eAfe|d2 fd d2 fd|efdB A3 z||                                                   
dBBB g2 fg|edBd e2 fe|dBBB g2 fg|e2 dB A3 z|                                                        
dBBB g2 fg|edBd e2 fe|dBBB g2 fg|e2 dB A3 z ||                                                      
a af g2 ef|edBd e3 z|faaf g2 fg|e2 dB A3 z|                                                         
faaf g2 ef|edBd e3 z|faaf g2 fd| e2 ef g2 fe3 |>|
